X: 961
T: Halkalı Şeker
C: Satılmış Kılıç
O: Turkey
F: http://compmusic.upf.edu/node/140
N: yeni-cargah--turku--sofyan--halkali_seker--eskisehir
N: makam= yeni-cargah
N: form= turku
N: usul= sofyan = 4/4
M: 4/4
L: 1/16
K: C    
Q: 1/4=72
%%MIDI tuningsystem comma53
c3d .B2.d2 cdcd .B2.d2  | cded .e2.d2 cdcd B2d2  | 
w:  ARANAĞME  |   | 
c3d .B2.d2 cdcd .B2.d2  | cded .e2.d2 cdcd B2d2  | 
w:  ARANAĞME  |   | 
c2dd .B2.d2 cdcd B2d2  | cded .e2.d2 cdcd B2d2  | 
w:   |   | 
e4 ee3 ee4-ez2  | eg^fg e/=f/e/f/de d6z2  | \
w:  Hal ka lı  şe ker   |  şam *  *  *  fıs *  *  *  *  *  tık    | 
ddg2 g2^fg gafg e2d2  | 
w:  A man  *  ar pa *  lar  *  *  *  ga  | 
c4 B2d2 c2c2 .B2.d2  | c3d .B2.d2 cdcd .B2.d2  | \
w:  ra  *  *  gıl çık   SAZ  |   | 
cded .e2.d2 cdcd B2d2  | 
w:   | 
ee7 ee7  | eg^fg e/=f/e/f/de d6z2  | \
w:  E ğer  be ni   |  se *  *  *  ver *  *  *  *  *  sen    | 
ddg2 g2^fg gafg e2.d2  | 
w:  A man  *  al  çe *  yi *  *  *  zi   | 
c4 B2d2 c2c2 .B2.d2  | c4 BBd2 cc3 .B2.d2  | \
w:  yo *  *  la  çık   SAZ  |  Hal ka lı  *  şe ker  SAZ  | 
c2c2 B2d2 cc3 .B2.d2  | 
w:  ha si ret lik  çe ker   SAZ  | 
cded e2d2 eg^fg e/=f/e/f/d2  | c2cc B2d2 cc3 B2d2  | 
w:  Çok  *  sa *  lın ma  sev *  *  di ğim    |  Ca hi lim_ ak lım  gi der   SAZ  | 
c4 BBd2 cc3 .B2.d2  | c2c2 B2d2 cc3 .B2.d2  | \
w:  Hal ka lı  *  şe ker  SAZ  |  ha si ret lik  çe ker   SAZ  | 
cded e2d2 eg^fg e/=f/e/f/d2  | 
w:  Çok  *  sa *  lın ma  sev *  *  di ğim    | 
c2cc B2d2 cc3 B2d2  | c3d .B2.d2 cdcd .B2.d2  | \
w:  Ca hi lim_ ak lım  gi der   SAZ  |  ARANAĞME  | 
cded .e2.d2 cdcd B2d2  | 
w:   | 
c3d .B2.d2 cdcd .B2.d2  | cded .e2.d2 cdcd B2d2  | 
w:  ARANAĞME  |   | 
c2dd .B2.d2 cdcd B2d2  | cded .e2.d2 cdcd B2d2  | 
w:   |   | 
e4 ee3 ee4-ez2  | eg^fg e/=f/e/f/de d6z2  | \
w:  Hal ka lı  şe ker   |  şam *  *  *  fıs *  *  *  *  *  tık    | 
ddg2 g2^fg gafg e2d2  | 
w:  A man  *  ar pa *  lar  *  *  *  ga  | 
c4 B2d2 c2c2 .B2.d2  | c3d .B2.d2 cdcd .B2.d2  | \
w:  ra  *  *  gıl çık   SAZ  |   | 
cded .e2.d2 cdcd B2d2  | 
w:   | 
ee7 ee7  | eg^fg e/=f/e/f/de d6z2  | \
w:  E ğer  be ni   |  se *  *  *  ver *  *  *  *  *  sen    | 
ddg2 g2^fg gafg e2.d2  | 
w:  A man  *  al  çe *  yi *  *  *  zi   | 
c4 B2d2 c2c2 .B2.d2  | c4 BBd2 cc3 .B2.d2  | \
w:  yo *  *  la  çık   SAZ  |  Hal ka lı  *  şe ker  SAZ  | 
c2c2 B2d2 cc3 .B2.d2  | 
w:  ha si ret lik  çe ker   SAZ  | 
cded e2d2 eg^fg e/=f/e/f/d2  | c2cc B2d2 cc3 B2d2  | 
w:  Çok  *  sa *  lın ma  sev *  *  di ğim    |  Ca hi lim_ ak lım  gi der   SAZ  | 
c4 BBd2 cc3 .B2.d2  | c2c2 B2d2 cc3 .B2.d2  | \
w:  Hal ka lı  *  şe ker  SAZ  |  ha si ret lik  çe ker   SAZ  | 
cded e2d2 eg^fg e/=f/e/f/d2  | 
w:  Çok  *  sa *  lın ma  sev *  *  di ğim    | 
c2cc B2d2 cc3 B2d2  | |


